.vercel/output/static/logo/logo.svg

<svg width="14" height="14" viewBox="0 0 14 14" fill="none" xmlns="http://www.w3.org/2000/svg">
<path d="M12.0039 0.496094C11.6199 0.496094 11.2369 0.644094 10.9439 0.938094L8.47594 3.40209L2.48194 2.33609L1.06794 3.75009L6.34794 5.53309L3.30694 8.58809L2.12494 8.34009L0.710938 9.75409L3.19894 10.8001L4.24594 13.2881L5.66194 11.8741L5.41994 10.7021L8.47494 7.64709L10.2699 12.9171L11.6839 11.5031L10.6229 5.50009L13.0639 3.05909C13.2036 2.91993 13.3144 2.75457 13.3899 2.5725C13.4655 2.39043 13.5044 2.19523 13.5044 1.99809C13.5044 1.80096 13.4655 1.60576 13.3899 1.42369C13.3144 1.24162 13.2036 1.07626 13.0639 0.937094C12.9249 0.797588 12.7597 0.686907 12.5778 0.6114C12.3959 0.535894 12.2009 0.496049 12.0039 0.496094Z" stroke="#00FF04" stroke-linecap="round" stroke-linejoin="round"/>
</svg>

<?xml version="1.0" encoding="UTF-8"?>
<svg viewBox="0 0 14 14" xmlns="http://www.w3.org/2000/svg">
<path d="m12.004 0.49609c-0.384 0-0.767 0.148-1.06 0.442l-2.468 2.464-5.994-1.066-1.414 1.414 5.28 1.783-3.041 3.055-1.182-0.248-1.414 1.414 2.488 1.046 1.047 2.488 1.416-1.414-0.242-1.172 3.055-3.055 1.795 5.27 1.414-1.414-1.061-6.003 2.441-2.441c0.1397-0.13916 0.2505-0.30452 0.326-0.48659 0.0756-0.18207 0.1145-0.37727 0.1145-0.57441 0-0.19713-0.0389-0.39233-0.1145-0.5744-0.0755-0.18207-0.1863-0.34743-0.326-0.4866-0.139-0.13951-0.3042-0.25019-0.4861-0.32569-0.1819-0.075506-0.3769-0.11535-0.5739-0.11531z" fill="none" stroke="#ededed" stroke-linecap="round" stroke-linejoin="round"/>
</svg>
